img/logo.svg

<?xml version="1.0" encoding="UTF-8" standalone="no"?>
<svg width="512px" height="512px" viewBox="0 0 512 512" version="1.1" xmlns="http://www.w3.org/2000/svg" xmlns:xlink="http://www.w3.org/1999/xlink" xmlns:sketch="http://www.bohemiancoding.com/sketch/ns">
    <!-- Generator: Sketch 3.0.4 (8054) - http://www.bohemiancoding.com/sketch -->
    <title>512</title>
    <desc>Created with Sketch.</desc>
    <defs></defs>
    <g id="Page-1" stroke="none" stroke-width="1" fill="none" fill-rule="evenodd" sketch:type="MSPage">
        <g id="512" sketch:type="MSArtboardGroup">
            <circle id="Oval-1" fill="#E96945" sketch:type="MSShapeGroup" cx="256" cy="256" r="256"></circle>
            <path d="M209.967867,282.920898 C206.399277,285.135538 202.143846,287.286003 197.201538,289.372314 C196.025588,289.89315 190.865117,291.778101 181.719971,295.027222 L190.026855,265.803589 L194.180298,246.235718 C196.389782,236.594149 199.37844,225.588604 203.146362,213.21875 C206.135065,203.192658 209.643535,192.450578 213.671875,180.992188 L198.242188,180.992188 C195.507799,186.070338 192.740899,192.808552 189.941406,201.207031 C187.141913,209.605511 184.505221,218.947865 182.03125,229.234375 L175.912476,254.414429 C169.931,260.930981 164.860555,265.492297 160.700989,268.098511 C156.541422,270.704725 152.316306,272.007812 148.025513,272.007812 C143.864929,272.007812 140.45208,270.542983 137.786865,267.613281 C135.12165,264.683579 133.789062,260.940127 133.789062,256.382812 C133.789062,250.914035 136.132789,239.52092 140.820312,222.203125 C145.507836,204.88533 147.851562,193.101594 147.851562,186.851562 C147.851562,184.377592 147.591148,182.359383 147.070312,180.796875 L136.523438,180.796875 C125.065047,190.171922 114.583381,197.91924 105.078125,204.039062 L109.570312,213.023438 C117.252643,208.596332 123.567684,204.364604 128.515625,200.328125 C128.515625,205.927111 125.976588,217.971262 120.898438,236.460938 C118.554676,245.05473 117.382812,252.216117 117.382812,257.945312 C117.382812,265.627643 119.917272,272.072891 124.986267,277.28125 C130.055262,282.489609 136.294519,285.09375 143.704224,285.09375 C152.802576,285.09375 162.22631,280.267952 171.975708,270.616211 L165.039062,299.15625 L158.59375,301.109375 C142.578045,306.187525 133.919277,308.986977 132.617188,309.507812 C118.16399,315.237008 110.9375,323.04943 110.9375,332.945312 C110.9375,339.195344 112.988261,344.240866 117.089844,348.082031 C121.191427,351.923196 126.62757,353.84375 133.398438,353.84375 C146.158918,353.84375 156.315066,349.2214 163.867188,339.976562 C169.726592,332.815068 174.414045,322.333402 177.929688,308.53125 C184.570346,306.447906 191.210904,304.29949 197.851562,302.085938 C203.297792,300.293507 207.630735,298.73834 210.85042,297.420425 C211.736435,300.99292 213.165199,304.338445 215.136719,307.457031 C218.717466,313.121122 223.958299,315.953125 230.859375,315.953125 C249.739678,315.953125 269.205629,308.726635 289.257812,294.273438 L289.257812,277.867188 C278.971303,286.851607 269.856811,293.329407 261.914062,297.300781 C253.971314,301.272155 246.093789,303.257812 238.28125,303.257812 C233.723936,303.257812 230.403656,301.239604 228.320312,297.203125 C226.888014,294.468736 226.171875,290.888043 226.171875,286.460938 L226.171875,285.679688 L230.273438,283.921875 C241.080783,279.49477 248.893205,275.523455 253.710938,272.007812 C262.825566,265.367154 267.382812,257.619836 267.382812,248.765625 C267.382812,238.869742 262.174531,233.921875 251.757812,233.921875 C240.690049,233.921875 230.924521,239.423122 222.460938,250.425781 C215.065598,260.039723 210.90127,270.871344 209.967867,282.920898 L209.967867,282.920898 Z M160.351562,312.828125 L154.296875,314.976562 C138.802006,320.575549 130.273445,323.830725 128.710938,324.742188 C124.804668,327.085949 122.851562,329.820297 122.851562,332.945312 C122.851562,335.940119 123.860667,338.316397 125.878906,340.074219 C127.897146,341.83204 130.533838,342.710938 133.789062,342.710938 C139.908885,342.710938 145.247373,340.269556 149.804688,335.386719 C154.362002,330.503882 157.877592,322.984426 160.351562,312.828125 Z M228.125,272.789062 C236.197957,269.794256 242.643205,266.311218 247.460938,262.339844 C252.27867,258.36847 254.6875,254.429707 254.6875,250.523438 C254.6875,247.65884 253.190119,246.226562 250.195312,246.226562 C245.898416,246.226562 241.53648,248.863255 237.109375,254.136719 C232.68227,259.410183 229.687508,265.627568 228.125,272.789062 Z M350.976562,248.570312 L354.101562,248.570312 C356.96616,232.684816 358.919266,222.593771 359.960938,218.296875 C362.565117,207.749947 366.992156,198.895869 373.242188,191.734375 C381.184936,184.312463 388.997357,180.601562 396.679688,180.601562 C402.148465,180.601562 406.412745,182.457013 409.472656,186.167969 C412.532567,189.878925 414.0625,195.054654 414.0625,201.695312 C414.0625,214.195375 409.765668,225.914008 401.171875,236.851562 C392.578082,247.789117 381.966209,254.8854 369.335938,258.140625 C366.601549,274.026121 362.239613,286.656203 356.25,296.03125 C348.046834,308.79173 337.04434,315.171875 323.242188,315.171875 C315.039021,315.171875 308.072945,312.567734 302.34375,307.359375 C297.786436,303.192688 295.507812,299.611994 295.507812,296.617188 C295.507812,294.533844 296.842435,292.092462 299.511719,289.292969 C302.181003,286.493476 304.16666,285.09375 305.46875,285.09375 C306.510422,285.09375 308.723941,287.958305 312.109375,293.6875 C315.494809,299.416695 319.726537,302.28125 324.804688,302.28125 C331.184928,302.28125 336.78383,298.700557 341.601562,291.539062 C346.419295,284.377568 350.065092,274.22142 352.539062,261.070312 C341.731717,261.070312 332.812535,258.205758 325.78125,252.476562 C318.749965,246.747367 315.234375,239.520877 315.234375,230.796875 C315.234375,225.197889 316.080721,220.835953 317.773438,217.710938 C319.98699,213.674459 323.50258,211.65625 328.320312,211.65625 C332.096373,211.65625 333.984375,212.697906 333.984375,214.78125 C333.984375,215.822922 333.007822,219.078098 331.054688,224.546875 C330.143225,227.020846 329.6875,229.299469 329.6875,231.382812 C329.6875,236.330754 331.673157,240.432275 335.644531,243.6875 C339.615905,246.942725 344.726531,248.570312 350.976562,248.570312 Z M372.070312,238.023438 L371.289062,244.859375 C379.101602,241.083314 385.709608,235.223998 391.113281,227.28125 C396.516954,219.338502 399.21875,211.135459 399.21875,202.671875 C399.21875,197.333307 397.330748,194.664062 393.554688,194.664062 C389.257791,194.664062 385.546891,197.072893 382.421875,201.890625 C377.734352,208.92191 374.283865,220.966061 372.070312,238.023438 Z" id="YeS" fill="#FFFFFF" sketch:type="MSShapeGroup"></path>
        </g>
    </g>
</svg>

<svg width="512" height="512" viewBox="0 0 512 512" xmlns="http://www.w3.org/2000/svg"><title>512</title><desc>Created with Sketch.</desc><g fill="none" fill-rule="evenodd"><g><circle fill="#E96945" cx="256" cy="256" r="256"/><path d="M209.968 282.92c-3.57 2.216-7.824 4.366-12.766 6.452-1.176.52-6.337 2.406-15.482 5.655l8.307-29.223 4.153-19.568c2.21-9.642 5.198-20.647 8.966-33.017 2.99-10.027 6.498-20.77 10.526-32.228h-15.43c-2.734 5.078-5.5 11.817-8.3 20.215-2.8 8.4-5.437 17.74-7.91 28.027l-6.12 25.18c-5.98 6.517-11.05 11.078-15.21 13.685-4.16 2.605-8.386 3.908-12.676 3.908-4.16 0-7.574-1.465-10.24-4.395-2.664-2.93-3.997-6.673-3.997-11.23 0-5.47 2.343-16.862 7.03-34.18 4.688-17.318 7.032-29.1 7.032-35.35 0-2.475-.26-4.494-.782-6.056h-10.547c-11.458 9.375-21.94 17.122-31.445 23.242l4.492 8.983c7.683-4.427 13.998-8.658 18.946-12.695 0 5.6-2.54 17.643-7.618 36.133-2.343 8.595-3.515 15.756-3.515 21.485 0 7.683 2.534 14.128 7.603 19.336 5.07 5.21 11.31 7.814 18.718 7.814 9.1 0 18.522-4.826 28.272-14.478l-6.937 28.54-6.446 1.953c-16.016 5.078-24.675 7.877-25.977 8.398-14.453 5.73-21.68 13.54-21.68 23.437 0 6.25 2.05 11.296 6.153 15.137 4.1 3.84 9.538 5.762 16.308 5.762 12.76 0 22.917-4.623 30.47-13.867 5.86-7.162 10.546-17.644 14.062-31.446 6.64-2.082 13.28-4.23 19.922-6.444 5.446-1.792 9.78-3.348 12.998-4.666.886 3.573 2.315 6.918 4.287 10.037 3.58 5.664 8.82 8.496 15.722 8.496 18.88 0 38.346-7.226 58.398-21.68v-16.406c-10.287 8.985-19.4 15.462-27.344 19.434-7.943 3.972-15.82 5.958-23.633 5.958-4.556 0-7.876-2.018-9.96-6.055-1.432-2.734-2.148-6.315-2.148-10.742v-.78l4.1-1.758c10.81-4.427 18.62-8.4 23.44-11.914 9.114-6.64 13.67-14.388 13.67-23.242 0-9.896-5.207-14.844-15.624-14.844-11.068 0-20.833 5.5-29.297 16.504-7.394 9.614-11.56 20.445-12.492 32.495zm-49.616 29.908l-6.055 2.15c-15.495 5.598-24.024 8.853-25.586 9.764-3.905 2.344-5.858 5.078-5.858 8.203 0 2.995 1.01 5.37 3.027 7.13 2.017 1.757 4.654 2.636 7.91 2.636 6.12 0 11.457-2.44 16.015-7.323 4.557-4.883 8.073-12.403 10.547-22.56zm67.773-40.04c8.073-2.994 14.518-6.477 19.336-10.448 4.82-3.972 7.227-7.91 7.227-11.817 0-2.864-1.497-4.296-4.492-4.296-4.297 0-8.66 2.636-13.086 7.91-4.428 5.273-7.422 11.49-8.985 18.652zm122.852-24.218h3.125c2.864-15.885 4.817-25.976 5.86-30.273 2.603-10.547 7.03-19.4 13.28-26.563 7.943-7.422 15.755-11.132 23.438-11.132 5.468 0 9.733 1.855 12.793 5.566 3.06 3.71 4.59 8.887 4.59 15.527 0 12.5-4.297 24.22-12.89 35.157-8.595 10.937-19.207 18.033-31.837 21.29-2.734 15.884-7.096 28.514-13.086 37.89-8.203 12.76-19.206 19.14-33.008 19.14-8.203 0-15.17-2.604-20.898-7.813-4.558-4.167-6.836-7.748-6.836-10.743 0-2.083 1.334-4.525 4.004-7.324 2.67-2.8 4.655-4.2 5.957-4.2 1.04 0 3.254 2.865 6.64 8.594 3.385 5.73 7.617 8.594 12.695 8.594 6.38 0 11.98-3.58 16.797-10.74 4.817-7.162 8.463-17.32 10.937-30.47-10.808 0-19.727-2.864-26.76-8.593-7.03-5.73-10.546-12.956-10.546-21.68 0-5.6.847-9.96 2.54-13.086 2.213-4.036 5.73-6.054 10.546-6.054 3.776 0 5.664 1.042 5.664 3.125 0 1.043-.976 4.298-2.93 9.767-.91 2.474-1.366 4.752-1.366 6.836 0 4.948 1.985 9.05 5.957 12.304 3.97 3.256 9.082 4.883 15.332 4.883zm21.093-10.547l-.78 6.836c7.812-3.777 14.42-9.636 19.823-17.58 5.404-7.94 8.106-16.145 8.106-24.608 0-5.34-1.89-8.008-5.665-8.008-4.297 0-8.008 2.41-11.133 7.227-4.688 7.032-8.138 19.076-10.352 36.133z" fill="#fff"/></g></g></svg>
